icons/svg/warden.svg

<svg xmlns="http://www.w3.org/2000/svg" viewBox="0 0 350 350"><switch><g><path fill="#fff" d="M59.991 59.991H290V290H59.991z"/><path d="M69.991 280V154.995l15.001-5-15.001-10V69.992h210.008v70.003l-15.001 10 15.001 5V280H69.991z"/><linearGradient id="warden-a" gradientUnits="userSpaceOnUse" x1="174.417" y1="38.333" x2="174.417" y2="143"><stop offset=".374" stop-color="#0e0e0c"/><stop offset=".951" stop-color="#010101"/><stop offset="1"/></linearGradient><path d="M63.833 38.333l109.5 61.833 9.833-2.833 101.834-59-14.772 102.27L105.75 143l-23.25-3.375L63.833 38.333z" fill="url(#warden-a)"/><path d="M195.996 137.994l23.001 19.001 38.001-31.001-45.002 107.004-23.001-80.003 7.001-15.001z" fill="#fff"/><path d="M174.995 113.993l95.004-52.002-8 51.002-45.002 36.001-42.002-35.001zM97.992 139.994l30.001 32.001 27.001-32.001 5 13-29.001 89.003-33.001-102.003z" fill="#fff"/><path d="M85.992 67.992l85.003 48.002-38.001 42.002-43.002-53.002-4-37.002z" fill="#fff"/><path d="M99.993 152.995l29.001 32.001 31.001-38.001-2.745-8.161 14.745-15.84 18.975 14.647.025 5.353 28.001 27.001 37.001-32.001 1-12-38.001 31.001-23.001-19.001-24.001-15.001-17.001 17.001-27.001 32.001-30.001-32.001 2.002 13.001z" fill-opacity=".1"/><linearGradient id="warden-b" gradientUnits="userSpaceOnUse" x1="173.495" y1="159.995" x2="173.495" y2="122.994"><stop offset=".097" stop-color="#31458e"/><stop offset="1" stop-color="#2e396f"/></linearGradient><path fill="url(#warden-b)" d="M183.367 149.771l-.371-1.776 6-10.001-17.001-15-14 16 8 13.001 8 8z"/><linearGradient id="warden-c" gradientUnits="userSpaceOnUse" x1="170.495" y1="269.999" x2="170.495" y2="164.938"><stop offset="0" stop-color="#35439a"/><stop offset=".618" stop-color="#3d50a3"/><stop offset="1" stop-color="#445aab"/></linearGradient><path fill="url(#warden-c)" d="M186.538 164.938l-10.543 14.058-14.016-13.14-26.985 93.143 3 11h61.002l7-12z"/><path fill="#283674" d="M186.538 164.938l-3.171-15.167-9.372 10.224-8-8-4.016 13.861 14.016 13.14z"/><linearGradient id="warden-d" gradientUnits="userSpaceOnUse" x1="306.667" y1="131.5" x2="306.667" y2="131.5"><stop offset=".374" stop-color="#0e0e0c"/><stop offset=".951" stop-color="#010101"/><stop offset="1"/></linearGradient></g></switch></svg>

<svg xmlns="http://www.w3.org/2000/svg" viewBox="0 0 350 350"><switch><g><path fill="#fff" d="M59.991 59.991H290V290H59.991z"/><path d="M69.991,280V154.995l15.001-5l-15.001-10V69.992c16.667,0,33.335,0,50.002,0h110.004c16.667,0,33.335,0,50.002,0v70.003 l-15.001,10l15.001,5V280H69.991z"/><linearGradient id="a" gradientUnits="userSpaceOnUse" x1="174.417" y1="38.333" x2="174.417" y2="143"><stop offset=".374" stop-color="#0e0e0c"/><stop offset=".951" stop-color="#010101"/><stop offset="1"/></linearGradient><path d="M63.833,38.333c36.5,20.611,73,41.222,109.5,61.833c3.278-0.944,6.556-1.889,9.833-2.833 C217.111,77.667,251.056,58,285,38.333c-4.924,34.09-9.848,68.18-14.772,102.27c-54.826,0.799-109.652,1.598-164.478,2.397 c-7.75-1.125-15.5-2.25-23.25-3.375C76.278,105.861,70.056,72.097,63.833,38.333z" fill="url(#a)"/><path d="M195.996,137.994l23.001,19.001l38.001-31.001l-45.002,107.004l-23.001-80.003L195.996,137.994z" fill="#fff"/><path d="M174.995 113.993l95.004-52.002-8 51.002-45.002 36.001L174.995 113.993zM97.992 139.994l30.001 32.001 27.001-32.001 5 13-29.001 89.003L97.992 139.994z" fill="#fff"/><path d="M85.992,67.992l85.003,48.002l-38.001,42.002l-43.002-53.002L85.992,67.992z" fill="#fff"/><path d="M99.993,152.995l29.001,32.001l31.001-38.001c-0.915-2.72-1.83-5.441-2.745-8.161 c4.915-5.28,9.83-10.56,14.745-15.84c6.325,4.882,12.65,9.765,18.975,14.647c0.008,1.784,0.017,3.569,0.025,5.353 c9.334,9,18.667,18.001,28.001,27.001l37.001-32.001l1-12l-38.001,31.001l-23.001-19.001l-24.001-15.001l-17.001,17.001 l-27.001,32.001l-30.001-32.001L99.993,152.995z" fill-opacity=".1"/><linearGradient id="b" gradientUnits="userSpaceOnUse" x1="173.495" y1="159.995" x2="173.495" y2="122.994"><stop offset=".097" stop-color="#31458e"/><stop offset="1" stop-color="#2e396f"/></linearGradient><path fill="url(#b)" d="M183.367 149.771L182.996 147.995 188.996 137.994 171.995 122.994 157.995 138.994 165.995 151.995 165.995 151.995 173.995 159.995z"/><linearGradient id="c" gradientUnits="userSpaceOnUse" x1="170.495" y1="269.999" x2="170.495" y2="164.938"><stop offset="0" stop-color="#35439a"/><stop offset=".618" stop-color="#3d50a3"/><stop offset="1" stop-color="#445aab"/></linearGradient><path fill="url(#c)" d="M186.538 164.938L175.995 178.996 161.979 165.856 134.994 258.999 137.994 269.999 198.996 269.999 205.996 257.999z"/><path fill="#283674" d="M186.538 164.938L183.367 149.771 173.995 159.995 165.995 151.995 161.979 165.856 175.995 178.996z"/></g></switch></svg>
